X:5706
T:Gan Ainm
R:Reel
S:(Liz Kane)
H:
N:
D:Galway Bay Broadcast
Z:Adrian Scahill
M:4/4
L:1/8
K:C
D3E FEDB,|CDEG BcdB|cAGE CEFG|A_BAG (3FED C=B,|\
A,3D3E FEDB,|CDEC G,A,A,C|_B,A,B,D C3E|FEDC A,DD2:||\
Add^c dfec|dcAB cAGE|F3G ABcd|efed cAGc|\
Add^c dfec|dcAB cAGc|Afec dcAB|cAGE D4:||\
Add^c defg|ad (3ddd c'dbd|ad (3ddd cdef| gc (3ccc AcGc|\
Add^c dfec|dcAB cAGc|Afec dcAB|cAGE D4:||\
